archdroid-icon-theme/Archdroid-Shamrock/apps/scalable/system-file-manager-xubuntu-color.svg

<svg fill="#00E676" height="48" viewBox="0 0 48 48" width="48" xmlns="http://www.w3.org/2000/svg"><path d="m20 5-4 4v4h-8c-2.21 0-3.980469 1.79-3.980469 4l-.019531 22c0 2.21 1.79 4 4 4h32c2.21 0 4-1.79 4-4v-22c0-2.21-1.79-4-4-4h-8v-4l-4-4zm0 4h8v4h-8zm9.251953 9a.399716.398548 0 0 0 .050781.001953c.055713-.003273.043179-.001002.058594.009766s.052846.048537.113281.121094c.087784.105662.115944.160752.132813.251953a.399716.398548 0 0 0 0 .019531c.128957 1.976387-.217255 3.995481-.703125 5.917969a.399716.398548 0 0 0 -.070313.167968c-.03564.221967-.113013.376706-.234375.460938-.112149.077814-.161018.092479-.193359.085937-.043209-.008862-.115978-.077753-.173828-.152343a.399716.398548 0 0 0 -.03125-.070313c-.31098-1.134614.076515-2.339132.197266-3.521484a.399716.398548 0 0 0 0-.056641c.246342-1.079737.252045-2.282469.796875-3.201172-.011885.019202.008164-.005536.05664-.035156zm4.46875.933594c.08033-.009968.229288.088696.244141.11914.050415.103052.046945.156074-.009766.292969a.374518.373424 0 0 0 -.001953.007813c-.820008 2.084934-1.818112 4.229808-3.138672 6.039062a.374518.373424 0 0 0 -.009765.013672c-.01217.018243-.005095.041216-.013672.0625-.098755.14742-.33894.23073-.470703.203125-.139747-.030206-.274783-.16311-.279297-.398437.097606-1.488526 1.025563-2.765691 1.753906-4.052735a.374518.373424 0 0 0 .041016-.109375c.578394-.787716 1.009731-1.768175 1.845703-2.173828a.374518.373424 0 0 0 .039062-.003906zm-12.986328.601562c.135506-.024718.274945-.014559.400391 0 .416883.029038.761335.215661 1.003906.5.408131.477933.601109 1.186196.726562 1.925782.124154.736522.159736 1.526643.175782 2.125v.724609c-.000137.017439 0 .035789 0 .048828 0 .033438-.016046.072525 0 .101563.01757.030557.070486.031389.099609.048828.023347.014479.026151.02219.050781.02539.045731.014559.091189.036303.175782.050782.285894.052396.741913.072843 1.228515.148437.973493.150973 2.2482.431272 3.560547.775391 1.312916.344262 2.629635.816266 3.685547 1.5 1.051965.681254 1.840529 1.563327 2.003906 2.75.10327.736098-.458642 1.475824-1.228515 2.15039-.768558.673551-1.77351 1.304729-2.857422 1.898438-1.083479.59326-2.211738 1.131468-3.109375 1.550781-.448839.209729-.847636.354411-1.152344.5-1.550955.623802-3.296756 1.180632-5.140625 1.550781-.072928 0-.246879.043229-.324219.048828-9.3891.811285-5.015625-10.773437-5.015625-10.773437.00053 0 .231358-.5476.326172-.875.018934-.074155.050781-.273215.050781-.349609-.013077-.077115-.06225-.22098-.101562-.375-.09175-.365358-.232325-.811971-.324219-1.351563-.090418-.540768-.149392-1.16049-.025391-1.699219.1234-.530585.440378-1.038944 1.001954-1.349609.217323-.107992.467543-.152006.677734-.099609.217764.053756.443895.214579.626953.375.366259.321144.695771.785705.976563 1.298828.279765.51109.53291 1.056256.728515 1.5.098015.222823.153126.399224.22461.550781.032091.066875.055793.161381.076171.199219.01757.036397 0 .037069 0 .02539.019015.030558.070487.033343.09961.050782-.019014-.014559.062261.034349.125.048828.092038.023278.160938.05638.25.050781.045209 0 .090609-.023103.126953-.050781.016046 0-.016046-.040109 0-.048828.029203-.034958.048828-.032576.048828-.076172v-.09961c-.037788-.13235-.115138-.32595-.224609-.724609-.127347-.460774-.244492-1.065274-.326172-1.650391-.081697-.586285-.122541-1.15881 0-1.673828.120343-.503379.398251-.934318.902344-1.125.142526-.055276.342372-.176294.476562-.201172z" fill="#04a"/></svg>

<svg fill="#00E676" height="48" version="1.1" viewBox="0 0 48 48" width="48" xmlns="http://www.w3.org/2000/svg"><path d="M20 5L16 9 16 13 8 13C5.79 13 4.019531 14.79 4.019531 17L4 39C4 41.21 5.79 43 8 43L40 43C42.21 43 44 41.21 44 39L44 17C44 14.79 42.21 13 40 13L32 13 32 9 28 5 20 5zM20 9L28 9 28 13 20 13 20 9zM29.251953 18A .399716.398548 0 0 0 29.302734 18.001953C29.358447 17.99868 29.345913 18.000951 29.361328 18.011719 29.376743 18.022487 29.414174 18.060256 29.474609 18.132813 29.562393 18.238475 29.590553 18.293565 29.607422 18.384766A.399716.398548 0 0 0 29.607422 18.404297C29.736379 20.380684 29.390167 22.399778 28.904297 24.322266A.399716.398548 0 0 0 28.833984 24.490234C28.798344 24.712201 28.720971 24.86694 28.599609 24.951172 28.48746 25.028986 28.438591 25.043651 28.40625 25.037109 28.363041 25.028247 28.290272 24.959356 28.232422 24.884766A.399716.398548 0 0 0 28.201172 24.814453C27.890192 23.679839 28.277687 22.475321 28.398438 21.292969A.399716.398548 0 0 0 28.398438 21.236328C28.64478 20.156591 28.650483 18.953859 29.195313 18.035156 29.183428 18.054358 29.203477 18.02962 29.251953 18zM33.720703 18.933594C33.801033 18.923626 33.949991 19.02229 33.964844 19.052734 34.015259 19.155786 34.011789 19.208808 33.955078 19.345703A.374518.373424 0 0 0 33.953125 19.353516C33.133117 21.43845 32.135013 23.583324 30.814453 25.392578A.374518.373424 0 0 0 30.804688 25.40625C30.792518 25.424493 30.799593 25.447466 30.791016 25.46875 30.692261 25.61617 30.452076 25.69948 30.320313 25.671875 30.180566 25.641669 30.04553 25.508765 30.041016 25.273438 30.138622 23.784912 31.066579 22.507747 31.794922 21.220703A.374518.373424 0 0 0 31.835938 21.111328C32.414332 20.323612 32.845669 19.343153 33.681641 18.9375A.374518.373424 0 0 0 33.720703 18.933594zM20.734375 19.535156C20.869881 19.510438 21.00932 19.520597 21.134766 19.535156 21.551649 19.564194 21.896101 19.750817 22.138672 20.035156 22.546803 20.513089 22.739781 21.221352 22.865234 21.960938 22.989388 22.69746 23.02497 23.487581 23.041016 24.085938L23.041016 24.810547C23.040879 24.827986 23.041016 24.846336 23.041016 24.859375 23.041016 24.892813 23.02497 24.9319 23.041016 24.960938 23.058586 24.991495 23.111502 24.992327 23.140625 25.009766 23.163972 25.024245 23.166776 25.031956 23.191406 25.035156 23.237137 25.049715 23.282595 25.071459 23.367188 25.085938 23.653082 25.138334 24.109101 25.158781 24.595703 25.234375 25.569196 25.385348 26.843903 25.665647 28.15625 26.009766 29.469166 26.354028 30.785885 26.826032 31.841797 27.509766 32.893762 28.19102 33.682326 29.073093 33.845703 30.259766 33.948973 30.995864 33.387061 31.73559 32.617188 32.410156 31.84863 33.083707 30.843678 33.714885 29.759766 34.308594 28.676287 34.901854 27.548028 35.440062 26.650391 35.859375 26.201552 36.069104 25.802755 36.213786 25.498047 36.359375 23.947092 36.983177 22.201291 37.540007 20.357422 37.910156 20.284494 37.910156 20.110543 37.953385 20.033203 37.958984 10.644103 38.770269 15.017578 27.185547 15.017578 27.185547 15.018108 27.185547 15.248936 26.637947 15.34375 26.310547 15.362684 26.236392 15.394531 26.037332 15.394531 25.960938 15.381454 25.883823 15.332281 25.739958 15.292969 25.585938 15.201219 25.220580000000003 15.060644 24.773967 14.96875 24.234375 14.878332 23.693607 14.819358 23.073885 14.943359 22.535156 15.066759 22.004571 15.383737 21.496212 15.945313 21.185547 16.162636 21.077555 16.412856 21.033541 16.623047 21.085938 16.840811 21.139694 17.066942 21.300517 17.25 21.460938 17.616259 21.782082 17.945771 22.246643 18.226563 22.759766 18.506328 23.270856 18.759473 23.816022 18.955078 24.259766 19.053093 24.482589 19.108204 24.65899 19.179688 24.810547 19.211779 24.877422 19.235481 24.971928 19.255859 25.009766 19.273429 25.046163 19.255859 25.046835 19.255859 25.035156 19.274874 25.065714 19.326346 25.068499 19.355469 25.085938 19.336455 25.071379 19.41773 25.120287 19.480469 25.134766 19.572507 25.158044 19.641407 25.191146 19.730469 25.185547 19.775678 25.185547 19.821078 25.162444 19.857422 25.134766 19.873468 25.134766 19.841376 25.094657 19.857422 25.085938 19.886625 25.05098 19.90625 25.053362 19.90625 25.009766L19.90625 24.910156C19.868462 24.777806000000003 19.791112 24.584206 19.681641 24.185547 19.554294 23.724773 19.437149 23.120273 19.355469 22.535156 19.273772 21.948871 19.232928 21.376346 19.355469 20.861328 19.475812 20.357949 19.75372 19.92701 20.257813 19.736328 20.400339 19.681052 20.600185 19.560034 20.734375 19.535156z" fill="#04a"/></svg>
